X: 1
%
T:Egg Hornpipe,aka. WM.044
T:Peckhover Walk Hornpipe,aka. WM.044
M:4/4
L:1/8
Q:180
S:Wm.Mittell's MS,New Romney,Kent,1799
R:Hornpipe
O:England
A:Kent
N:a.k.a..China Orange Hornpipe.Works nicely as a dotted rhythm HP.Name
Z:vmp.Chris Partington
F:http://www.village-music-project.org.uk/abc/edmitt.abc
K:D
dAFA GBAG|FAFA GBAG|FDFD GEGE|AFED DCB,A,|!
dAFA GBAG|FAFA GBAG|FAdg fedc|d2d2d4:|!
|:ecAc ecge|fdBd fdaf|"?"ecAc ecgf|edcBA2A2|!

